public/images/icons/32x32/oral_32_white.svg

<svg height="32" viewBox="0 0 32 32" width="32" xmlns="http://www.w3.org/2000/svg"><path d="m21.84 16.8552c.2143594.0197211.4229566-.0764153.5472152-.2521954.1242587-.1757801.1453008-.4044988.0552-.6-.0901007-.1955012-.2776558-.3280835-.4920152-.3478046l-1.596-.2952c-.2109296-.0394421-.4268787.0366415-.5665014.1995908s-.1817069.3880085-.1104.5904.2451718.3513671.4561014.3908092l1.5984.2976c.0354218.0088353.0715682.0144581.108.0168zm-2.7024 2.4792c.185337.2434683.5241942.3084674.7864652.1508585.262271-.1576088.3639261-.4873289.2359348-.7652585l-.7608-1.2552c-.1716501-.2836534-.5407466-.3744501-.8244-.2028s-.3744501.5407466-.2028.8244zm.5976-4.9344c.1320485-.0001535.2603279-.0440385.3648-.1248l1.164-.8976c.2650967-.2021362.3161362-.5809033.114-.846s-.5809033-.3161362-.846-.114l-1.164.8976c-.2120582.1544817-.299155.4288264-.2150355.6773364.0841195.2485099.3199451.4135468.5822355.4074636zm-.8256-4.5096c-.1793636-.26673092-.4283773-.47922262-.72-.6144-.9693974-.4941279-1.6002447-1.46924016-1.6536-2.556-.0128759-.32152252-.0441269-.6420457-.0936-.96-.4176-2.58-2.0424-5.64-7.368-5.64h-.0984c-4.7616 0-8.4696 3.1608-8.8296 7.5336-.14886601 1.73464551.25704627 3.4717484 1.1592 4.9608 1.47841865 2.369479 1.6546195 5.3269424.468 7.8552-.11286642.2338479-.06250134.5137615.1248.6936 1.97151462 1.729666 4.49820478 2.6945262 7.1208 2.7192.78157532-.0007075 1.5606875-.0876332 2.3232-.2592.2785183-.0568502.4789206-.3013409.48-.5856v-2.4648c.1728.0256.3488.0464.528.0624 1.0174031.0932345 2.0427518.0480222 3.048-.1344.5966114-.1160745 1.1144193-.4832777 1.4212993-1.0079139s.3731501-1.1559614.1819007-1.7328861c-.0059419-.1954077.0142364-.3907338.06-.5808l.0744-.2976c.0691921-.2739383.021376-.5643122-.132-.8016-.149956-.2312144-.3888132-.390163-.66-.4392-.732-.1296-1.2264-.4416-1.44-.9024.7950721.0074551 1.5866127-.1066627 2.3472-.3384.2533785-.0864086.4188578-.3302214.4056-.5976l-.0696-1.4112c.4439844-.1670694.8426413-.4358545 1.164-.7848.4270101-.4737955.4914638-1.1720438.1584-1.716zm-1.0536.924c-.2884556.291609-.655257.4933498-1.056.5808-.2656057.0783122-.4431197.3282201-.4296.6048l.0672 1.38c-.5513562.1212195-1.1158599.1720248-1.68.1512-.3457044-.0132349-.6764899.1414297-.888.4152-.2154389.2806983-.2807982.6486805-.1752.9864.1704.5496.6864 1.5 2.2296 1.8456l-.0264.1032c-.0942053.3765599-.1137734.7679212-.0576 1.152.0055292.0252549.0127453.0501106.0216.0744.0915537.2534357.0669767.5343157-.0672.768-.1315105.2345746-.3615089.3976003-.6264.444-.8991582.1634072-1.8163622.2037771-2.7264.12-.9036581-.0672614-1.7836634-.3205591-2.5848-.744-.5079312-.2494553-.94710331-.6194146-1.2792-1.0776-.18092848-.2776888-.55271123-.3561285-.8304-.1752s-.35612848.5527112-.1752.8304c.43979555.6257294 1.02769076 1.13282 1.7112 1.476.42263212.2289585.8672832.4146988 1.3272.5544v2.2416c-3.7896.648-6.6432-1.2576-7.5648-1.9824 1.14864074-2.806904.88085213-5.9944811-.72-8.5704-.76895495-1.2736715-1.11351802-2.75865429-.984-4.2408.3072-3.732 3.5136-6.432 7.6392-6.432h.0912c3.648 0 5.6808 1.5144 6.1848 4.6248.0427972.27821111.0692426.55869257.0792.84.0732584 1.5043198.9419578 2.85583327 2.28 3.5472.0972662.0441032.1864914.1041274.264.1776.0591531.096004.0494497.2192372-.024.3048z" fill="#fff" transform="translate(5 4)"/></svg>

<svg xmlns="http://www.w3.org/2000/svg" width="32" height="32" viewBox="0 0 32 32">
  <path fill="#FFF" d="M21.84 16.8552C22.0543594 16.8749211 22.2629566 16.7787847 22.3872152 16.6030046 22.5114739 16.4272245 22.532516 16.1985058 22.4424152 16.0030046 22.3523145 15.8075034 22.1647594 15.6749211 21.9504 15.6552L20.3544 15.36C20.1434704 15.3205579 19.9275213 15.3966415 19.7878986 15.5595908 19.6482759 15.7225401 19.6061917 15.9475993 19.6774986 16.1499908 19.7488055 16.3523823 19.9226704 16.5013579 20.1336 16.5408L21.732 16.8384C21.7674218 16.8472353 21.8035682 16.8528581 21.84 16.8552zM19.1376 19.3344C19.322937 19.5778683 19.6617942 19.6428674 19.9240652 19.4852585 20.1863362 19.3276497 20.2879913 18.9979296 20.16 18.72L19.3992 17.4648C19.2275499 17.1811466 18.8584534 17.0903499 18.5748 17.262 18.2911466 17.4336501 18.2003499 17.8027466 18.372 18.0864L19.1376 19.3344zM19.7352 14.4C19.8672485 14.3998465 19.9955279 14.3559615 20.1 14.2752L21.264 13.3776C21.5290967 13.1754638 21.5801362 12.7966967 21.378 12.5316 21.1758638 12.2665033 20.7970967 12.2154638 20.532 12.4176L19.368 13.3152C19.1559418 13.4696817 19.068845 13.7440264 19.1529645 13.9925364 19.237084 14.2410463 19.4729096 14.4060832 19.7352 14.4L19.7352 14.4zM18.9096 9.8904C18.7302364 9.62366908 18.4812227 9.41117738 18.1896 9.276 17.2202026 8.7818721 16.5893553 7.80675984 16.536 6.72 16.5231241 6.39847748 16.4918731 6.0779543 16.4424 5.76 16.0248 3.18 14.4.12 9.0744.12L8.976.12C4.2144.12.5064 3.2808.1464 7.6536-.00246601072 9.38824551.403446266 11.1253484 1.3056 12.6144 2.78401865 14.983879 2.9602195 17.9413424 1.7736 20.4696 1.66073358 20.7034479 1.71109866 20.9833615 1.8984 21.1632 3.86991462 22.892866 6.39660478 23.8577262 9.0192 23.8824 9.80077532 23.8816925 10.5798875 23.7947668 11.3424 23.6232 11.6209183 23.5663498 11.8213206 23.3218591 11.8224 23.0376L11.8224 20.5728C11.9952 20.5984 12.1712 20.6192 12.3504 20.6352 13.3678031 20.7284345 14.3931518 20.6832222 15.3984 20.5008 15.9950114 20.3847255 16.5128193 20.0175223 16.8196993 19.4928861 17.1265793 18.9682499 17.1928494 18.3369247 17.0016 17.76 16.9956581 17.5645923 17.0158364 17.3692662 17.0616 17.1792L17.136 16.8816C17.2051921 16.6076617 17.157376 16.3172878 17.004 16.08 16.854044 15.8487856 16.6151868 15.689837 16.344 15.6408 15.612 15.5112 15.1176 15.1992 14.904 14.7384 15.6990721 14.7458551 16.4906127 14.6317373 17.2512 14.4 17.5045785 14.3135914 17.6700578 14.0697786 17.6568 13.8024L17.5872 12.3912C18.0311844 12.2241306 18.4298413 11.9553455 18.7512 11.6064 19.1782101 11.1326045 19.2426638 10.4343562 18.9096 9.8904zM17.856 10.8144C17.5675444 11.106009 17.200743 11.3077498 16.8 11.3952 16.5343943 11.4735122 16.3568803 11.7234201 16.3704 12L16.4376 13.38C15.8862438 13.5012195 15.3217401 13.5520248 14.7576 13.5312 14.4118956 13.5179651 14.0811101 13.6726297 13.8696 13.9464 13.6541611 14.2270983 13.5888018 14.5950805 13.6944 14.9328 13.8648 15.4824 14.3808 16.4328 15.924 16.7784L15.8976 16.8816C15.8033947 17.2581599 15.7838266 17.6495212 15.84 18.0336 15.8455292 18.0588549 15.8527453 18.0837106 15.8616 18.108 15.9531537 18.3614357 15.9285767 18.6423157 15.7944 18.876 15.6628895 19.1105746 15.4328911 19.2736003 15.168 19.32 14.2688418 19.4834072 13.3516378 19.5237771 12.4416 19.44 11.5379419 19.3727386 10.6579366 19.1194409 9.8568 18.696 9.3488688 18.4465447 8.90969669 18.0765854 8.5776 17.6184 8.39667152 17.3407112 8.02488877 17.2622715 7.7472 17.4432 7.46951123 17.6241285 7.39107152 17.9959112 7.572 18.2736 8.01179555 18.8993294 8.59969076 19.40642 9.2832 19.7496 9.70583212 19.9785585 10.1504832 20.1642988 10.6104 20.304L10.6104 22.5456C6.8208 23.1936 3.9672 21.288 3.0456 20.5632 4.19424074 17.756296 3.92645213 14.5687189 2.3256 11.9928 1.55664505 10.7191285 1.21208198 9.23414571 1.3416 7.752 1.6488 4.02 4.8552 1.32 8.9808 1.32L9.072 1.32C12.72 1.32 14.7528 2.8344 15.2568 5.9448 15.2995972 6.22301111 15.3260426 6.50349257 15.336 6.7848 15.4092584 8.2891198 16.2779578 9.64063327 17.616 10.332 17.7132662 10.3761032 17.8024914 10.4361274 17.88 10.5096 17.9391531 10.605604 17.9294497 10.7288372 17.856 10.8144L17.856 10.8144z" transform="translate(5 4)"/>
</svg>
